dist/img/about_bg.svg

<svg width="96" height="115" xmlns="http://www.w3.org/2000/svg"><path d="M49.7 114.3l45.9-28V53.2L69.7 68.6v11.8l15.4-8.9v7.3L61.8 92.5V66.4l33.8-19.9V32.2l-45.9 27zM1.1 27.5l47.3 27.3 47.3-27.3L48.4.2 1.1 27.5zm27.3 3.7c-2.5 1.4-6.5 1.4-9 0s-2.5-3.8 0-5.2c2.5-1.4 6.5-1.4 9 0 2.4 1.4 2.4 3.7 0 5.2zm5.3-13.4c2.5-1.4 6.5-1.4 9 0s2.5 3.8 0 5.2c-2.5 1.4-6.5 1.4-9 0-2.5-1.5-2.5-3.8 0-5.2zm14.8 25c-2.5 1.4-6.5 1.4-9 0s-2.5-3.8 0-5.2c2.5-1.4 6.5-1.4 9 0 2.4 1.4 2.4 3.7 0 5.2zM68 21.1c2.5-1.4 6.5-1.4 9 0s2.5 3.8 0 5.2c-2.5 1.4-6.5 1.4-9 0s-2.5-3.8 0-5.2zm-5.3 13.4c-2.5 1.4-6.5 1.4-9 0s-2.5-3.8 0-5.2c2.5-1.4 6.5-1.4 9 0s2.5 3.8 0 5.2zm-5.8-25c2.5 1.4 2.5 3.8 0 5.2-2.5 1.4-6.5 1.4-9 0s-2.5-3.8 0-5.2c2.5-1.4 6.5-1.4 9 0zM14.5 40L.4 31.8v56.4l44.9 25.9V97.9L14.5 80.1z" fill="#FFF"/></svg>

<?xml version="1.0" encoding="UTF-8"?>
<svg width="96px" height="115px" viewBox="0 0 96 115" version="1.1" xmlns="http://www.w3.org/2000/svg" xmlns:xlink="http://www.w3.org/1999/xlink">
    <!-- Generator: Sketch 51.1 (57501) - http://www.bohemiancoding.com/sketch -->
    <title>logo_Shape</title>
    <desc>Created with Sketch.</desc>
    <defs></defs>
    <g id="Page-1" stroke="none" stroke-width="1" fill="none" fill-rule="evenodd">
        <g id="logo_Shape" fill="#FFFFFF" fill-rule="nonzero">
            <polygon id="Shape" points="49.7 114.3 95.6 86.3 95.6 53.2 69.7 68.6 69.7 80.4 85.1 71.5 85.1 78.8 61.8 92.5 61.8 66.4 95.6 46.5 95.6 32.2 49.7 59.2"></polygon>
            <path d="M1.1,27.5 L48.4,54.8 L95.7,27.5 L48.4,0.2 L1.1,27.5 Z M28.4,31.2 C25.9,32.6 21.9,32.6 19.4,31.2 C16.9,29.8 16.9,27.4 19.4,26 C21.9,24.6 25.9,24.6 28.4,26 C30.8,27.4 30.8,29.7 28.4,31.2 Z M33.7,17.8 C36.2,16.4 40.2,16.4 42.7,17.8 C45.2,19.2 45.2,21.6 42.7,23 C40.2,24.4 36.2,24.4 33.7,23 C31.2,21.5 31.2,19.2 33.7,17.8 Z M48.5,42.8 C46,44.2 42,44.2 39.5,42.8 C37,41.4 37,39 39.5,37.6 C42,36.2 46,36.2 48.5,37.6 C50.9,39 50.9,41.3 48.5,42.8 Z M68,21.1 C70.5,19.7 74.5,19.7 77,21.1 C79.5,22.5 79.5,24.9 77,26.3 C74.5,27.7 70.5,27.7 68,26.3 C65.5,24.9 65.5,22.5 68,21.1 Z M62.7,34.5 C60.2,35.9 56.2,35.9 53.7,34.5 C51.2,33.1 51.2,30.7 53.7,29.3 C56.2,27.9 60.2,27.9 62.7,29.3 C65.2,30.7 65.2,33.1 62.7,34.5 Z M56.9,9.5 C59.4,10.9 59.4,13.3 56.9,14.7 C54.4,16.1 50.4,16.1 47.9,14.7 C45.4,13.3 45.4,10.9 47.9,9.5 C50.4,8.1 54.4,8.1 56.9,9.5 Z" id="Shape"></path>
            <polygon id="Shape" points="14.5 40 0.4 31.8 0.4 88.2 45.3 114.1 45.3 97.9 14.5 80.1"></polygon>
        </g>
    </g>
</svg>
